inst/assets/svg/wi-cloudy-gusts.svg

<?xml version="1.0" encoding="UTF-8"?>
<svg xmlns="http://www.w3.org/2000/svg" xmlns:xlink="http://www.w3.org/1999/xlink" width="30pt" height="30pt" viewBox="0 0 30 30" version="1.1">
<g id="surface41">
<path style=" stroke:none;fill-rule:nonzero;fill:rgb(0%,0%,0%);fill-opacity:1;" d="M 3.621094 21.011719 C 3.621094 20.761719 3.699219 20.550781 3.871094 20.378906 C 4.039063 20.21875 4.238281 20.140625 4.46875 20.140625 L 9.890625 20.140625 C 10.628906 20.140625 11.261719 20.398438 11.78125 20.929688 C 12.300781 21.460938 12.558594 22.089844 12.558594 22.828125 C 12.558594 23.570313 12.300781 24.210938 11.78125 24.730469 C 11.261719 25.25 10.628906 25.511719 9.890625 25.511719 C 9.148438 25.511719 8.511719 25.25 7.988281 24.71875 C 7.828125 24.558594 7.761719 24.359375 7.761719 24.121094 C 7.761719 23.878906 7.839844 23.671875 7.988281 23.519531 C 8.140625 23.359375 8.339844 23.28125 8.589844 23.28125 C 8.820313 23.28125 9.019531 23.359375 9.199219 23.519531 C 9.398438 23.710938 9.628906 23.808594 9.890625 23.808594 C 10.148438 23.808594 10.378906 23.710938 10.570313 23.519531 C 10.761719 23.328125 10.859375 23.101563 10.859375 22.820313 C 10.859375 22.558594 10.761719 22.328125 10.570313 22.140625 C 10.378906 21.949219 10.148438 21.851563 9.890625 21.851563 L 4.46875 21.851563 C 4.238281 21.851563 4.039063 21.769531 3.871094 21.601563 C 3.699219 21.429688 3.621094 21.25 3.621094 21.011719 Z M 3.621094 17.96875 C 3.621094 17.730469 3.699219 17.519531 3.871094 17.351563 C 4.039063 17.191406 4.238281 17.109375 4.46875 17.109375 L 15.019531 17.109375 C 15.28125 17.109375 15.511719 17.011719 15.699219 16.820313 C 15.890625 16.628906 15.988281 16.390625 15.988281 16.128906 C 15.988281 15.871094 15.890625 15.628906 15.699219 15.441406 C 15.511719 15.25 15.28125 15.148438 15.019531 15.148438 C 14.738281 15.148438 14.519531 15.238281 14.339844 15.429688 C 14.160156 15.578125 13.949219 15.660156 13.699219 15.660156 C 13.460938 15.660156 13.261719 15.578125 13.101563 15.429688 C 12.949219 15.28125 12.871094 15.078125 12.871094 14.828125 C 12.871094 14.578125 12.941406 14.378906 13.101563 14.21875 C 13.609375 13.710938 14.25 13.460938 15.019531 13.460938 C 15.761719 13.460938 16.398438 13.71875 16.921875 14.238281 C 17.441406 14.761719 17.699219 15.390625 17.699219 16.121094 C 17.699219 16.851563 17.441406 17.488281 16.921875 18.011719 C 16.398438 18.53125 15.769531 18.789063 15.019531 18.789063 L 4.46875 18.789063 C 4.230469 18.789063 4.03125 18.710938 3.871094 18.550781 C 3.699219 18.398438 3.621094 18.199219 3.621094 17.96875 Z M 5.769531 15.609375 C 5.769531 15.691406 5.820313 15.730469 5.929688 15.730469 L 7.371094 15.730469 C 7.449219 15.730469 7.519531 15.679688 7.589844 15.578125 C 7.808594 15.039063 8.171875 14.589844 8.640625 14.230469 C 9.121094 13.871094 9.648438 13.671875 10.230469 13.628906 L 10.761719 13.550781 C 10.890625 13.550781 10.960938 13.488281 10.960938 13.378906 L 11.03125 12.859375 C 11.140625 11.78125 11.589844 10.871094 12.398438 10.140625 C 13.210938 9.410156 14.160156 9.039063 15.261719 9.039063 C 16.371094 9.039063 17.328125 9.398438 18.140625 10.128906 C 18.949219 10.859375 19.410156 11.769531 19.53125 12.859375 L 19.601563 13.449219 C 19.601563 13.558594 19.660156 13.621094 19.769531 13.621094 L 21.390625 13.621094 C 22.300781 13.621094 23.070313 13.941406 23.71875 14.578125 C 24.371094 15.21875 24.691406 15.980469 24.691406 16.878906 C 24.691406 17.769531 24.371094 18.539063 23.71875 19.179688 C 23.070313 19.820313 22.300781 20.140625 21.390625 20.140625 L 14.480469 20.140625 C 14.359375 20.140625 14.289063 20.199219 14.289063 20.308594 L 14.289063 21.699219 C 14.289063 21.808594 14.351563 21.871094 14.480469 21.871094 L 21.390625 21.871094 C 22.300781 21.871094 23.128906 21.648438 23.898438 21.199219 C 24.671875 20.761719 25.269531 20.148438 25.71875 19.390625 C 26.171875 18.621094 26.390625 17.789063 26.390625 16.890625 C 26.390625 15.980469 26.171875 15.148438 25.71875 14.390625 C 25.269531 13.628906 24.671875 13.019531 23.898438 12.578125 C 23.128906 12.140625 22.300781 11.910156 21.390625 11.910156 L 21.078125 11.910156 C 20.769531 10.578125 20.070313 9.488281 18.980469 8.640625 C 17.898438 7.789063 16.648438 7.371094 15.25 7.371094 C 13.839844 7.371094 12.589844 7.808594 11.5 8.691406 C 10.410156 9.570313 9.71875 10.691406 9.429688 12.058594 C 8.570313 12.261719 7.808594 12.671875 7.148438 13.289063 C 6.488281 13.910156 6.03125 14.648438 5.769531 15.5 L 5.769531 15.539063 C 5.769531 15.558594 5.769531 15.578125 5.769531 15.609375 Z M 5.769531 15.609375 "/>
</g>
</svg>

<?xml version="1.0" encoding="utf-8"?>
<!-- Generator: Adobe Illustrator 22.0.1, SVG Export Plug-In . SVG Version: 6.00 Build 0)  -->
<svg version="1.1" id="Layer_1" xmlns="http://www.w3.org/2000/svg" xmlns:xlink="http://www.w3.org/1999/xlink" x="0px" y="0px"
	 viewBox="0 0 30 30" style="enable-background:new 0 0 30 30;" xml:space="preserve">
<path d="M3.62,21.01c0-0.25,0.08-0.46,0.25-0.63c0.17-0.16,0.37-0.24,0.6-0.24h5.42c0.74,0,1.37,0.26,1.89,0.79
	c0.52,0.53,0.78,1.16,0.78,1.9c0,0.74-0.26,1.38-0.78,1.9c-0.52,0.52-1.15,0.78-1.89,0.78s-1.38-0.26-1.9-0.79
	c-0.16-0.16-0.23-0.36-0.23-0.6c0-0.24,0.08-0.45,0.23-0.6c0.15-0.16,0.35-0.24,0.6-0.24c0.23,0,0.43,0.08,0.61,0.24
	c0.2,0.19,0.43,0.29,0.69,0.29s0.49-0.1,0.68-0.29c0.19-0.19,0.29-0.42,0.29-0.7c0-0.26-0.1-0.49-0.29-0.68s-0.42-0.29-0.68-0.29
	H4.47c-0.23,0-0.43-0.08-0.6-0.25S3.62,21.25,3.62,21.01z M3.62,17.97c0-0.24,0.08-0.45,0.25-0.62c0.17-0.16,0.37-0.24,0.6-0.24
	h10.55c0.26,0,0.49-0.1,0.68-0.29c0.19-0.19,0.29-0.43,0.29-0.69s-0.1-0.5-0.29-0.69c-0.19-0.19-0.42-0.29-0.68-0.29
	c-0.28,0-0.5,0.09-0.68,0.28c-0.18,0.15-0.39,0.23-0.64,0.23c-0.24,0-0.44-0.08-0.6-0.23c-0.15-0.15-0.23-0.35-0.23-0.6
	c0-0.25,0.07-0.45,0.23-0.61c0.51-0.51,1.15-0.76,1.92-0.76c0.74,0,1.38,0.26,1.9,0.78c0.52,0.52,0.78,1.15,0.78,1.88
	s-0.26,1.37-0.78,1.89c-0.52,0.52-1.15,0.78-1.9,0.78H4.47c-0.24,0-0.44-0.08-0.6-0.24C3.7,18.4,3.62,18.2,3.62,17.97z M5.77,15.61
	c0,0.08,0.05,0.12,0.16,0.12h1.44c0.08,0,0.15-0.05,0.22-0.15c0.22-0.54,0.58-0.99,1.05-1.35c0.48-0.36,1.01-0.56,1.59-0.6
	l0.53-0.08c0.13,0,0.2-0.06,0.2-0.17l0.07-0.52c0.11-1.08,0.56-1.99,1.37-2.72s1.76-1.1,2.86-1.1c1.11,0,2.07,0.36,2.88,1.09
	c0.81,0.73,1.27,1.64,1.39,2.73l0.07,0.59c0,0.11,0.06,0.17,0.17,0.17h1.62c0.91,0,1.68,0.32,2.33,0.96c0.65,0.64,0.97,1.4,0.97,2.3
	c0,0.89-0.32,1.66-0.97,2.3c-0.65,0.64-1.42,0.96-2.33,0.96h-6.91c-0.12,0-0.19,0.06-0.19,0.17v1.39c0,0.11,0.06,0.17,0.19,0.17
	h6.91c0.91,0,1.74-0.22,2.51-0.67c0.77-0.44,1.37-1.05,1.82-1.81c0.45-0.77,0.67-1.6,0.67-2.5c0-0.91-0.22-1.74-0.67-2.5
	c-0.45-0.76-1.05-1.37-1.82-1.81c-0.77-0.44-1.6-0.67-2.51-0.67h-0.31c-0.31-1.33-1.01-2.42-2.1-3.27
	c-1.08-0.85-2.33-1.27-3.73-1.27c-1.41,0-2.66,0.44-3.75,1.32s-1.78,2-2.07,3.37c-0.86,0.2-1.62,0.61-2.28,1.23
	s-1.12,1.36-1.38,2.21v0.04C5.77,15.56,5.77,15.58,5.77,15.61z"/>
</svg>
